public/images/vectorBgAbout.svg

<svg fill="none" height="235" viewBox="0 0 1286 235" width="1286" xmlns="http://www.w3.org/2000/svg"><g clip-rule="evenodd" fill="#1a1a1a" fill-rule="evenodd"><path d="m102.762 80.914c12.725.3078 25.728-.3078 37.895 4.0574.726.2574 1.523-.1175 1.786-.845.256-.7276-.118-1.5278-.843-1.7909-12.451-4.4659-25.751-3.9063-38.771-4.2197-.77-.0224-1.412.5932-1.429 1.3655-.022.7723.592 1.4103 1.362 1.4327z"/><path d="m101.618 62.3805c3.966-3.6612 8.295-6.404 13.528-7.7633.747-.1937 1.194-.9576 1.004-1.7053-.195-.7476-.96-1.197-1.702-1.0034-5.69 1.4775-10.404 4.4335-14.716 8.412-.569.5227-.6081 1.4086-.0837 1.9772.5187.568 1.4057.6055 1.9697.0828z"/><path d="m90.5838 22.4095c1.8187-6.2539 5.4002-11.1463 10.8892-14.67929.647-.41693.837-1.28325.419-1.93299-.413-.64974-1.278-.83891-1.9249-.42198-6.0752 3.91188-10.0472 9.32586-12.061 16.25026-.2176.7409.212 1.5189.9484 1.7349.7419.2166 1.5173-.2099 1.7293-.9509z"/><path d="m27.9071 13.9219c-1.0823 1.2777-2.053 2.6544-2.8786 4.1201-.3682.6525-1.0153 2.0393-1.1157 3.2285-.1116 1.2671.3179 2.336 1.4225 2.899 1.4672.7465 2.6387.6688 3.5425.2171.8703-.4337 1.5508-1.286 1.9804-2.4288.82-2.1843.6973-5.5225.2677-7.4275 1.1548-1.1954 2.4212-2.2795 3.7768-3.2432 10.0973-7.17735 24.9087-4.53081 36.3058 6.2008 3.9888 3.7575 5.9078 11.6484 6.9064 20.1622 1.5564 13.2561.6694 28.062.5467 32.3998-.0279 1.0711.0725 1.7068.1283 1.8339.2622.6245.7252.7868 1.0488.8484.4686.0839.8423-.0056 1.1436-.1623.4072-.2149.742-.5932.8982-1.1769.0837-.3224.1059-.7712.0948-1.2497-.0112-.3319-.0781-.6945-.0112-.9324.4351-1.5233.9595-3.0108 1.4728-4.509 1.7126-5.0362 3.9274-9.7556 6.3876-14.4695 7.8156-14.9781 15.3745-30.8042 28.1885-42.21581.575-.51207.631-1.39741.117-1.97496-.507-.57755-1.389-.63017-1.969-.11754-13.071 11.63711-20.836 27.73571-28.8079 43.01051-2.092 4.0098-4.0111 8.0253-5.6066 12.2254.1618-7.4298.1004-17.7143-1.2552-26.814-1.205-8.093-3.4978-15.2452-7.3749-18.898-12.485-11.7563-28.7691-14.30657-39.826-6.44364-1.1826.8417-2.3095 1.76734-3.3582 2.77134-5.7851-10.47923-18.1697-14.67936-29.11502-9.66722-.702909.32067-1.009729 1.15118-.691747 1.85353.323562.70235 1.149167 1.0124 1.852077.69173 9.86309-4.516295 21.04829-.48579 25.92959 9.26816zm.8089 3.5084c-.4519.6402-.8703 1.304-1.2608 1.9901-.2064.3682-.5635 1.0762-.7141 1.769-.0335.1623-.039.4164-.039.5339.3849.1903.6861.2821.9316.1584.3068-.1522.4631-.5104.6137-.9106.3793-1.004.5021-2.3348.4686-3.5408z"/><path d="m1246.24 229.914c12.72.308 25.73-.308 37.9 4.057.72.258 1.52-.117 1.78-.845.26-.727-.12-1.527-.84-1.79-12.45-4.466-25.75-3.907-38.77-4.22-.77-.023-1.42.593-1.43 1.365-.02.773.59 1.411 1.36 1.433z"/><path d="m1245.1 211.38c3.96-3.661 8.29-6.403 13.52-7.763.75-.193 1.2-.957 1.01-1.705-.2-.748-.96-1.197-1.7-1.003-5.69 1.477-10.41 4.433-14.72 8.411-.57.523-.61 1.409-.08 1.978.51.568 1.4.605 1.97.082z"/><path d="m1234.06 171.409c1.82-6.254 5.4-11.146 10.89-14.679.65-.417.84-1.283.42-1.933-.41-.65-1.28-.839-1.92-.422-6.08 3.912-10.05 9.326-12.07 16.25-.21.741.22 1.519.95 1.735.74.217 1.52-.21 1.73-.951z"/><path d="m1171.38 162.922c-1.08 1.278-2.05 2.654-2.87 4.12-.37.653-1.02 2.039-1.12 3.229-.11 1.267.32 2.335 1.42 2.898 1.47.747 2.64.669 3.55.218.87-.434 1.55-1.286 1.98-2.429.82-2.184.69-5.523.26-7.428 1.16-1.195 2.42-2.279 3.78-3.243 10.1-7.177 24.91-4.531 36.31 6.201 3.98 3.757 5.9 11.648 6.9 20.162 1.56 13.256.67 28.062.55 32.4-.03 1.071.07 1.707.13 1.834.26.624.72.787 1.05.848.46.084.84-.005 1.14-.162.41-.215.74-.593.9-1.177.08-.322.1-.771.09-1.25-.01-.332-.08-.694-.01-.932.44-1.523.96-3.011 1.47-4.509 1.72-5.036 3.93-9.756 6.39-14.47 7.82-14.978 15.38-30.804 28.19-42.215.58-.512.63-1.398.12-1.975-.51-.578-1.39-.631-1.97-.118-13.07 11.637-20.84 27.736-28.81 43.011-2.09 4.009-4.01 8.025-5.61 12.225.17-7.43.1-17.714-1.25-26.814-1.21-8.093-3.5-15.245-7.38-18.898-12.48-11.756-28.77-14.307-39.82-6.444-1.18.842-2.31 1.768-3.36 2.772-5.79-10.48-18.17-14.68-29.12-9.668-.7.321-1 1.152-.69 1.854.33.702 1.15 1.012 1.86.692 9.86-4.517 21.04-.486 25.92 9.268zm.81 3.508c-.45.641-.87 1.304-1.26 1.99-.2.369-.56 1.077-.71 1.769-.03.163-.04.417-.04.534.38.191.69.282.93.159.31-.153.46-.511.61-.911.38-1.004.51-2.335.47-3.541z"/></g></svg>

<svg width="1286" height="235" viewBox="0 0 1286 235" fill="none" xmlns="http://www.w3.org/2000/svg">
<path fill-rule="evenodd" clip-rule="evenodd" d="M102.762 80.914C115.487 81.2218 128.49 80.6062 140.657 84.9714C141.383 85.2288 142.18 84.8539 142.443 84.1264C142.699 83.3988 142.325 82.5986 141.6 82.3355C129.149 77.8696 115.849 78.4292 102.829 78.1158C102.059 78.0934 101.417 78.709 101.4 79.4813C101.378 80.2536 101.992 80.8916 102.762 80.914Z" fill="#1A1A1A"/>
<path fill-rule="evenodd" clip-rule="evenodd" d="M101.618 62.3805C105.584 58.7193 109.913 55.9765 115.146 54.6172C115.893 54.4235 116.34 53.6596 116.15 52.9119C115.955 52.1643 115.19 51.7149 114.448 51.9085C108.758 53.386 104.044 56.342 99.732 60.3205C99.163 60.8432 99.1239 61.7291 99.6483 62.2977C100.167 62.8657 101.054 62.9032 101.618 62.3805Z" fill="#1A1A1A"/>
<path fill-rule="evenodd" clip-rule="evenodd" d="M90.5838 22.4095C92.4025 16.1556 95.984 11.2632 101.473 7.73021C102.12 7.31328 102.31 6.44696 101.892 5.79722C101.479 5.14748 100.614 4.95831 99.9671 5.37524C93.8919 9.28712 89.9199 14.7011 87.9061 21.6255C87.6885 22.3664 88.1181 23.1444 88.8545 23.3604C89.5964 23.577 90.3718 23.1505 90.5838 22.4095Z" fill="#1A1A1A"/>
<path fill-rule="evenodd" clip-rule="evenodd" d="M27.9071 13.9219C26.8248 15.1996 25.8541 16.5763 25.0285 18.042C24.6603 18.6945 24.0132 20.0813 23.9128 21.2705C23.8012 22.5376 24.2307 23.6065 25.3353 24.1695C26.8025 24.916 27.974 24.8383 28.8778 24.3866C29.7481 23.9529 30.4286 23.1006 30.8582 21.9578C31.6782 19.7735 31.5555 16.4353 31.1259 14.5303C32.2807 13.3349 33.5471 12.2508 34.9027 11.2871C45 4.10975 59.8114 6.75629 71.2085 17.4879C75.1973 21.2454 77.1163 29.1363 78.1149 37.6501C79.6713 50.9062 78.7843 65.7121 78.6616 70.0499C78.6337 71.121 78.7341 71.7567 78.7899 71.8838C79.0521 72.5083 79.5151 72.6706 79.8387 72.7322C80.3073 72.8161 80.681 72.7266 80.9823 72.5699C81.3895 72.355 81.7243 71.9767 81.8805 71.393C81.9642 71.0706 81.9864 70.6218 81.9753 70.1433C81.9641 69.8114 81.8972 69.4488 81.9641 69.2109C82.3992 67.6876 82.9236 66.2001 83.4369 64.7019C85.1495 59.6657 87.3643 54.9463 89.8245 50.2324C97.6401 35.2543 105.199 19.4282 118.013 8.01659C118.588 7.50452 118.644 6.61918 118.13 6.04163C117.623 5.46408 116.741 5.41146 116.161 5.92409C103.09 17.5612 95.325 33.6598 87.3531 48.9346C85.2611 52.9444 83.342 56.9599 81.7465 61.16C81.9083 53.7302 81.8469 43.4457 80.4913 34.346C79.2863 26.253 76.9935 19.1008 73.1164 15.448C60.6314 3.6917 44.3473 1.14143 33.2904 9.00436C32.1078 9.84606 30.9809 10.7717 29.9322 11.7757C24.1471 1.29647 11.7625 -2.90366 0.81718 2.10848C0.114271 2.42915 -0.192549 3.25966 0.125433 3.96201C0.448995 4.66436 1.2746 4.97441 1.97751 4.65374C11.8406 0.137445 23.0258 4.16795 27.9071 13.9219ZM28.716 17.4303C28.2641 18.0705 27.8457 18.7343 27.4552 19.4204C27.2488 19.7886 26.8917 20.4966 26.7411 21.1894C26.7076 21.3517 26.7021 21.6058 26.7021 21.7233C27.087 21.9136 27.3882 22.0054 27.6337 21.8817C27.9405 21.7295 28.0968 21.3713 28.2474 20.9711C28.6267 19.9671 28.7495 18.6363 28.716 17.4303Z" fill="#1A1A1A"/>
<path fill-rule="evenodd" clip-rule="evenodd" d="M1246.24 229.914C1258.96 230.222 1271.97 229.606 1284.14 233.971C1284.86 234.229 1285.66 233.854 1285.92 233.126C1286.18 232.399 1285.8 231.599 1285.08 231.336C1272.63 226.87 1259.33 227.429 1246.31 227.116C1245.54 227.093 1244.89 227.709 1244.88 228.481C1244.86 229.254 1245.47 229.892 1246.24 229.914Z" fill="#1A1A1A"/>
<path fill-rule="evenodd" clip-rule="evenodd" d="M1245.1 211.38C1249.06 207.719 1253.39 204.977 1258.62 203.617C1259.37 203.424 1259.82 202.66 1259.63 201.912C1259.43 201.164 1258.67 200.715 1257.93 200.909C1252.24 202.386 1247.52 205.342 1243.21 209.32C1242.64 209.843 1242.6 210.729 1243.13 211.298C1243.64 211.866 1244.53 211.903 1245.1 211.38Z" fill="#1A1A1A"/>
<path fill-rule="evenodd" clip-rule="evenodd" d="M1234.06 171.409C1235.88 165.155 1239.46 160.263 1244.95 156.73C1245.6 156.313 1245.79 155.447 1245.37 154.797C1244.96 154.147 1244.09 153.958 1243.45 154.375C1237.37 158.287 1233.4 163.701 1231.38 170.625C1231.17 171.366 1231.6 172.144 1232.33 172.36C1233.07 172.577 1233.85 172.15 1234.06 171.409Z" fill="#1A1A1A"/>
<path fill-rule="evenodd" clip-rule="evenodd" d="M1171.38 162.922C1170.3 164.2 1169.33 165.576 1168.51 167.042C1168.14 167.695 1167.49 169.081 1167.39 170.271C1167.28 171.538 1167.71 172.606 1168.81 173.169C1170.28 173.916 1171.45 173.838 1172.36 173.387C1173.23 172.953 1173.91 172.101 1174.34 170.958C1175.16 168.774 1175.03 165.435 1174.6 163.53C1175.76 162.335 1177.02 161.251 1178.38 160.287C1188.48 153.11 1203.29 155.756 1214.69 166.488C1218.67 170.245 1220.59 178.136 1221.59 186.65C1223.15 199.906 1222.26 214.712 1222.14 219.05C1222.11 220.121 1222.21 220.757 1222.27 220.884C1222.53 221.508 1222.99 221.671 1223.32 221.732C1223.78 221.816 1224.16 221.727 1224.46 221.57C1224.87 221.355 1225.2 220.977 1225.36 220.393C1225.44 220.071 1225.46 219.622 1225.45 219.143C1225.44 218.811 1225.37 218.449 1225.44 218.211C1225.88 216.688 1226.4 215.2 1226.91 213.702C1228.63 208.666 1230.84 203.946 1233.3 199.232C1241.12 184.254 1248.68 168.428 1261.49 157.017C1262.07 156.505 1262.12 155.619 1261.61 155.042C1261.1 154.464 1260.22 154.411 1259.64 154.924C1246.57 166.561 1238.8 182.66 1230.83 197.935C1228.74 201.944 1226.82 205.96 1225.22 210.16C1225.39 202.73 1225.32 192.446 1223.97 183.346C1222.76 175.253 1220.47 168.101 1216.59 164.448C1204.11 152.692 1187.82 150.141 1176.77 158.004C1175.59 158.846 1174.46 159.772 1173.41 160.776C1167.62 150.296 1155.24 146.096 1144.29 151.108C1143.59 151.429 1143.29 152.26 1143.6 152.962C1143.93 153.664 1144.75 153.974 1145.46 153.654C1155.32 149.137 1166.5 153.168 1171.38 162.922ZM1172.19 166.43C1171.74 167.071 1171.32 167.734 1170.93 168.42C1170.73 168.789 1170.37 169.497 1170.22 170.189C1170.19 170.352 1170.18 170.606 1170.18 170.723C1170.56 170.914 1170.87 171.005 1171.11 170.882C1171.42 170.729 1171.57 170.371 1171.72 169.971C1172.1 168.967 1172.23 167.636 1172.19 166.43Z" fill="#1A1A1A"/>
</svg>
